X: 11684
T: Eily Buckley's Fancy
R: polka
M: 2/4
K: Dmajor
fe/f/ ge|fd de/f/|gB ed|cA Ag|
f>a ge|fd de/f/|e/f/e/d/ ce|1 d2 de:|2 d2 dB||
|:A>B AG|FA de/f/|gf ed|cA BG|
A>B AG|FA de/f/|e/f/e/d/ ce|1 d2 dB:|2 d2 de||

